icons/svg/education/nursery3.svg

<?xml version="1.0" encoding="UTF-8" standalone="no"?>
<!-- Created with Inkscape (http://www.inkscape.org/) -->

<svg
   xmlns:dc="http://purl.org/dc/elements/1.1/"
   xmlns:cc="http://creativecommons.org/ns#"
   xmlns:rdf="http://www.w3.org/1999/02/22-rdf-syntax-ns#"
   xmlns:svg="http://www.w3.org/2000/svg"
   xmlns="http://www.w3.org/2000/svg"
   xmlns:sodipodi="http://sodipodi.sourceforge.net/DTD/sodipodi-0.dtd"
   xmlns:inkscape="http://www.inkscape.org/namespaces/inkscape"
   version="1.0"
   width="580"
   height="580"
   id="svg2"
   sodipodi:version="0.32"
   inkscape:version="0.47 r22583"
   sodipodi:docname="education_nursery3.svg"
   inkscape:output_extension="org.inkscape.output.svg.inkscape">
  <defs
     id="defs22">
    <inkscape:perspective
       sodipodi:type="inkscape:persp3d"
       inkscape:vp_x="599.81824 : 535.34677 : 1"
       inkscape:vp_y="0 : -1000 : 0"
       inkscape:vp_z="79.922314 : 516.25488 : 1"
       inkscape:persp3d-origin="295.6761 : 676.56117 : 1"
       id="perspective24" />
    <marker
       viewBox="0 0 10 10"
       refY="5"
       refX="10"
       orient="auto"
       markerWidth="4"
       markerUnits="strokeWidth"
       markerHeight="3"
       id="ArrowStart">
      <path
         id="path3568"
         d="M 10 0 L 0 5 L 10 10 z" />
    </marker>
    <marker
       viewBox="0 0 10 10"
       refY="5"
       refX="0"
       orient="auto"
       markerWidth="4"
       markerUnits="strokeWidth"
       markerHeight="3"
       id="ArrowEnd">
      <path
         id="path3565"
         d="M 0 0 L 10 5 L 0 10 z" />
    </marker>
    <inkscape:perspective
       id="perspective2683"
       inkscape:persp3d-origin="306.082 : 204.39034 : 1"
       inkscape:vp_z="612.164 : 306.58551 : 1"
       inkscape:vp_y="0 : 1000 : 0"
       inkscape:vp_x="0 : 306.58551 : 1"
       sodipodi:type="inkscape:persp3d" />
    <marker
       viewBox="0 0 10 10"
       refY="5"
       refX="10"
       orient="auto"
       markerWidth="4"
       markerUnits="strokeWidth"
       markerHeight="3"
       id="marker2959">
      <path
         id="path2626"
         d="M 10 0 L 0 5 L 10 10 z" />
    </marker>
    <marker
       viewBox="0 0 10 10"
       refY="5"
       refX="0"
       orient="auto"
       markerWidth="4"
       markerUnits="strokeWidth"
       markerHeight="3"
       id="marker2956">
      <path
         id="path2623"
         d="M 0 0 L 10 5 L 0 10 z" />
    </marker>
    <inkscape:perspective
       id="perspective2953"
       inkscape:persp3d-origin="306.082 : 204.39034 : 1"
       inkscape:vp_z="612.164 : 306.58551 : 1"
       inkscape:vp_y="0 : 1000 : 0"
       inkscape:vp_x="0 : 306.58551 : 1"
       sodipodi:type="inkscape:persp3d" />
    <inkscape:perspective
       id="perspective3927"
       inkscape:persp3d-origin="0.5 : 0.33333333 : 1"
       inkscape:vp_z="1 : 0.5 : 1"
       inkscape:vp_y="0 : 1000 : 0"
       inkscape:vp_x="0 : 0.5 : 1"
       sodipodi:type="inkscape:persp3d" />
    <inkscape:perspective
       id="perspective4081"
       inkscape:persp3d-origin="0.5 : 0.33333333 : 1"
       inkscape:vp_z="1 : 0.5 : 1"
       inkscape:vp_y="0 : 1000 : 0"
       inkscape:vp_x="0 : 0.5 : 1"
       sodipodi:type="inkscape:persp3d" />
    <inkscape:perspective
       id="perspective4103"
       inkscape:persp3d-origin="0.5 : 0.33333333 : 1"
       inkscape:vp_z="1 : 0.5 : 1"
       inkscape:vp_y="0 : 1000 : 0"
       inkscape:vp_x="0 : 0.5 : 1"
       sodipodi:type="inkscape:persp3d" />
    <inkscape:perspective
       id="perspective4139"
       inkscape:persp3d-origin="0.5 : 0.33333333 : 1"
       inkscape:vp_z="1 : 0.5 : 1"
       inkscape:vp_y="0 : 1000 : 0"
       inkscape:vp_x="0 : 0.5 : 1"
       sodipodi:type="inkscape:persp3d" />
    <inkscape:perspective
       id="perspective2991"
       inkscape:persp3d-origin="0.5 : 0.33333333 : 1"
       inkscape:vp_z="1 : 0.5 : 1"
       inkscape:vp_y="0 : 1000 : 0"
       inkscape:vp_x="0 : 0.5 : 1"
       sodipodi:type="inkscape:persp3d" />
  </defs>
  <metadata
     id="metadata10">
    <rdf:RDF>
      <cc:Work
         rdf:about="">
        <dc:format>image/svg+xml</dc:format>
        <dc:type
           rdf:resource="http://purl.org/dc/dcmitype/StillImage" />
        <cc:license
           rdf:resource="http://web.resource.org/cc/PublicDomain" />
        <dc:language>en</dc:language>
        <dc:title></dc:title>
      </cc:Work>
    </rdf:RDF>
  </metadata>
  <sodipodi:namedview
     inkscape:window-height="973"
     inkscape:window-width="1280"
     inkscape:pageshadow="2"
     inkscape:pageopacity="0.0"
     guidetolerance="10.0"
     gridtolerance="10.0"
     objecttolerance="10.0"
     borderopacity="1.0"
     bordercolor="#666666"
     pagecolor="#ffffff"
     id="base"
     showgrid="false"
     inkscape:zoom="0.062500002"
     inkscape:cx="7476.8773"
     inkscape:cy="-1052.2038"
     inkscape:window-x="0"
     inkscape:window-y="0"
     inkscape:current-layer="svg2"
     inkscape:window-maximized="1" />
  <g
     id="g1327">
    <path
       d="M 66.275,1.768 C 24.94,1.768 1.704,23.139 1.704,66.804 L 1.704,516.927 C 1.704,557.771 22.598,579.156 63.896,579.156 L 515.92,579.156 C 557.227,579.156 578.149,558.84 578.149,516.927 L 578.149,66.804 C 578.149,24.203 557.227,1.768 514.627,1.768 C 514.624,1.768 66.133,1.625 66.275,1.768 z"
       style="fill:#111111;stroke:#eeeeee;stroke-width:3.40799999"
       id="path1329" />
  </g>
  <g
     id="g2319"
     transform="translate(879.29125,36.805119)">
    <path
       id="path2323"
       style="fill:#ffffff;stroke:none"
       d="" />
  </g>
  <g
     id="g2325"
     transform="translate(879.29125,36.805119)">
    <path
       id="path2329"
       style="fill:#ffffff;stroke:none"
       d="" />
  </g>
  <path
     style="fill:none;stroke:#ffffff;stroke-width:30.44716263;stroke-linecap:round;stroke-linejoin:round;stroke-miterlimit:4;stroke-opacity:1;stroke-dasharray:none"
     d="M 68.564095,150.51046 318.30511,232.32214 313.99924,528.35134 85.78763,423.9338 68.564095,150.51046 z"
     id="path3933"
     sodipodi:nodetypes="ccccc" />
  <path
     style="fill:none;stroke:#ffffff;stroke-width:30.44716263;stroke-linecap:round;stroke-linejoin:round;stroke-miterlimit:4;stroke-opacity:1;stroke-dasharray:none"
     d="M 514.22263,131.13401 318.30511,232.32214 315.0757,529.42783 494.84619,405.63379 514.22263,131.13401 z"
     id="path3935" />
  <path
     style="fill:none;stroke:#ffffff;stroke-width:30.44716263;stroke-linecap:round;stroke-linejoin:round;stroke-miterlimit:4;stroke-opacity:1;stroke-dasharray:none"
     d="M 273.09339,62.239925 70.986184,148.08842 318.30511,231.24568 512.06968,129.25014 273.09339,62.239925 z"
     id="path3937"
     sodipodi:nodetypes="ccccc" />
  <path
     style="font-size:medium;font-style:normal;font-variant:normal;font-weight:normal;font-stretch:normal;text-indent:0;text-align:start;text-decoration:none;line-height:normal;letter-spacing:normal;word-spacing:normal;text-transform:none;direction:ltr;block-progression:tb;writing-mode:lr-tb;text-anchor:start;opacity:0.9;color:#000000;fill:#ffffff;fill-opacity:1;fill-rule:nonzero;stroke:none;stroke-width:16.52018929;marker:none;visibility:visible;display:inline;overflow:visible;enable-background:accumulate;font-family:Bitstream Charter;-inkscape-font-specification:Bitstream Charter"
     d="m 68.837859,135.30745 c -4.195247,-0.0822 -8.386918,1.63409 -11.288544,4.66517 -2.901644,3.03108 -4.469507,7.33125 -4.204406,11.51892 l 17.220788,273.40161 c 0.341089,5.47059 3.883904,10.62375 8.86957,12.9012 L 307.68271,542.21337 c 4.58364,2.09005 10.20101,1.71741 14.45624,-0.9791 4.25524,-2.6965 7.01696,-7.6336 7.08414,-12.67082 l 4.3196,-296.03629 c 0.0923,-6.43689 -4.36479,-12.68188 -10.48222,-14.68663 L 73.330238,136.05618 c -1.44873,-0.47251 -2.968712,-0.72584 -4.492379,-0.74873 z m 68.883151,102.92157 c 4.73153,-0.10724 10.61429,0.74335 17.68155,2.53417 9.4229,2.38795 19.70104,6.03411 30.75552,11.00057 17.74515,7.97282 31.99031,15.52983 42.85039,22.63468 10.8598,7.10515 20.04867,15.8446 27.53022,26.26314 5.25385,7.24653 9.54633,16.05482 12.8436,26.49352 3.29692,10.43883 5.11851,19.86225 5.47149,28.16377 l 3.28289,77.81031 c 0.35257,8.30151 1.12482,15.09753 2.24619,20.21571 1.12093,5.11807 3.38258,11.97679 6.79616,20.67647 l -55.57879,-24.93847 c -2.42329,-5.54036 -4.00057,-9.64058 -4.78036,-12.32525 -0.78006,-2.68497 -1.63913,-6.75576 -2.53416,-12.15246 -7.39539,5.03762 -14.84151,7.62199 -22.34671,7.83287 -10.26572,0.16495 -22.30299,-2.81228 -36.16941,-9.04236 -18.4241,-8.27766 -32.65475,-19.43063 -42.62001,-33.46246 -9.96535,-14.03191 -15.2318,-28.22606 -15.83852,-42.50483 -0.56913,-13.39322 2.40926,-22.85367 8.92716,-28.39414 6.51787,-5.54034 18.92139,-6.24609 37.26372,-2.131 21.9894,4.88518 36.22826,7.78205 42.7352,8.69679 6.50675,0.91489 13.39025,1.39192 20.61887,1.38227 -0.35287,-8.3015 -2.09409,-14.79574 -5.24111,-19.46698 -3.14727,-4.67112 -8.50543,-8.69657 -16.0689,-12.09487 -9.69692,-4.35658 -16.9001,-5.85596 -21.59798,-4.49238 -3.66427,1.06818 -6.52135,4.86954 -8.524,11.46133 l -56.84588,-32.25298 c 1.65353,-10.33155 4.3142,-17.79453 8.06325,-22.4619 3.74905,-4.66704 9.34109,-7.68084 16.70243,-9.04235 1.3211,-0.24784 2.80002,-0.36741 4.37719,-0.40317 z m 41.00736,118.93287 c -3.72921,0.0927 -6.36578,0.67569 -7.89046,1.72784 -3.14179,2.17144 -4.57481,5.60299 -4.37719,10.25184 0.22568,5.31303 2.0219,10.36956 5.4139,15.20498 3.39181,4.83551 8.21079,8.68707 14.51384,11.51892 6.5938,2.96254 12.68233,3.86853 18.19989,2.76454 5.51735,-1.10423 9.30888,-3.75782 11.46133,-7.94805 2.1522,-4.19033 3.06431,-10.47874 2.70695,-18.89104 l -0.46076,-10.77019 c -8.00436,-0.33897 -16.33781,-1.28822 -25.05365,-2.70695 -5.9345,-0.87477 -10.78463,-1.24461 -14.51385,-1.15189 z"
     id="path4040" />
  <path
     style="font-size:medium;font-style:normal;font-variant:normal;font-weight:normal;font-stretch:normal;text-indent:0;text-align:start;text-decoration:none;line-height:normal;letter-spacing:normal;word-spacing:normal;text-transform:none;direction:ltr;block-progression:tb;writing-mode:lr-tb;text-anchor:start;opacity:0.6;color:#000000;fill:#ffffff;fill-opacity:1;fill-rule:nonzero;stroke:none;stroke-width:30.44716263;marker:none;visibility:visible;display:inline;overflow:visible;enable-background:accumulate;font-family:Bitstream Charter;-inkscape-font-specification:Bitstream Charter"
     d="M 513.3125 115.9375 C 511.20609 116.0615 509.12687 116.62954 507.25 117.59375 L 311.3125 218.78125 C 306.4314 221.31096 303.14522 226.65881 303.09375 232.15625 L 299.84375 529.25 C 299.77435 534.8007 303.00695 540.26503 307.90625 542.875 C 312.80556 545.48497 319.15082 545.12297 323.71875 541.96875 L 503.46875 418.1875 C 507.22329 415.60673 509.70863 411.26329 510.03125 406.71875 L 529.40625 132.21875 C 529.71345 127.91179 528.09798 123.50835 525.0625 120.4375 C 522.02702 117.36665 517.62273 115.68021 513.3125 115.9375 z M 461.5625 269.53125 C 462.25094 269.52983 462.915 269.54579 463.5625 269.59375 C 473.92225 270.36154 480.77761 276.20573 484.03125 287.21875 L 437.34375 319.40625 C 436.34014 315.08976 434.0598 312.71018 430.46875 312.28125 C 426.87744 311.85265 421.86377 313.51522 415.4375 317.1875 C 407.32415 321.82408 400.52348 328.27279 395.03125 336.625 C 389.53887 344.97748 386.30011 354.72607 385.34375 365.84375 C 384.49134 375.75152 386.33691 381.85958 390.875 384.15625 C 395.41293 386.45311 401.56952 385.40699 409.28125 381 C 415.7075 377.32766 421.23019 372.6653 425.875 367.0625 C 430.51961 361.45985 434.21548 354.82445 436.9375 347.15625 L 483.09375 325.5 C 479.73578 336.12048 474.84597 346.48689 468.40625 356.53125 C 461.96625 366.57577 454.06108 376.05257 444.625 384.96875 C 435.18869 393.88494 423.43257 402.34162 409.375 410.375 C 395.79924 418.13306 384.61333 423.37433 375.78125 426.15625 C 366.94909 428.93826 359.48545 429.55123 353.4375 427.9375 C 347.38945 426.32392 342.82704 422.97961 339.75 417.90625 C 336.67293 412.83298 335.63473 404.34292 336.65625 392.46875 C 337.72328 380.06531 340.85484 368.47086 346.0625 357.65625 C 349.87648 349.72378 354.85217 341.7182 360.96875 333.65625 C 367.08529 325.59445 373.27355 318.6626 379.5 312.875 C 389.37796 303.70646 401.77739 294.85106 416.71875 286.3125 C 436.29897 275.12323 451.23586 269.55251 461.5625 269.53125 z "
     id="path4042" />
  <path
     style="font-size:medium;font-style:normal;font-variant:normal;font-weight:normal;font-stretch:normal;text-indent:0;text-align:start;text-decoration:none;line-height:normal;letter-spacing:normal;word-spacing:normal;text-transform:none;direction:ltr;block-progression:tb;writing-mode:lr-tb;text-anchor:start;opacity:0.75;color:#000000;fill:#ffffff;fill-opacity:1;fill-rule:nonzero;stroke:none;stroke-width:30.44716263;marker:none;visibility:visible;display:inline;overflow:visible;enable-background:accumulate;font-family:Bitstream Charter;-inkscape-font-specification:Bitstream Charter"
     d="M 272.6875 47.03125 C 270.79129 47.07792 268.90452 47.482987 267.15625 48.21875 L 65.03125 134.0625 C 59.373254 136.44928 55.514248 142.55121 55.75 148.6875 C 55.985752 154.82379 60.300556 160.58562 66.125 162.53125 L 313.46875 245.6875 C 317.35931 246.99091 321.77677 246.63243 325.40625 244.71875 L 519.15625 142.71875 C 524.50425 139.90126 527.82203 133.66764 527.1875 127.65625 C 526.55296 121.64487 522.00589 116.23257 516.1875 114.59375 L 277.21875 47.59375 C 275.74798 47.180323 274.21472 46.989986 272.6875 47.03125 z M 315.15625 111.25 C 316.30703 111.25571 317.47734 111.28437 318.65625 111.3125 C 337.51877 111.76271 357.44413 115.62593 378.4375 122.9375 C 392.43299 127.81202 403.01991 132.89652 410.1875 138.1875 C 417.35489 143.47859 420.49283 148.43682 419.59375 153.0625 C 418.69437 157.68824 414.49029 161.72165 406.96875 165.125 C 400.53017 168.03834 392.77409 170.05297 383.71875 171.1875 C 376.7916 172.00325 366.96664 172.09121 354.25 171.46875 L 373.21875 178.0625 L 338.8125 193.625 L 161.9375 132.03125 L 199.03125 115.25 L 260.34375 136.59375 C 258.86662 133.14006 259.16056 129.91284 261.25 126.90625 C 263.33953 123.8997 267.21881 121.12195 272.875 118.5625 C 283.81904 113.61065 297.8945 111.16428 315.15625 111.25 z M 313.21875 134.03125 C 306.8919 133.98402 301.88295 134.79371 298.25 136.4375 C 293.25566 138.69738 291.64996 141.37903 293.4375 144.53125 C 295.2252 147.68357 301.16452 151.02956 311.21875 154.53125 C 322.23824 158.36919 331.76691 160.42938 339.8125 160.75 C 347.85812 161.07074 354.24633 160.18222 359 158.03125 C 363.39262 156.0437 364.63768 153.5114 362.75 150.46875 C 360.86228 147.42622 354.18956 143.9123 342.6875 139.90625 C 332.55278 136.37654 323.66401 134.45737 316 134.125 C 315.042 134.08347 314.12259 134.038 313.21875 134.03125 z "
     id="path4044" />
</svg>

<svg width="580" height="580" viewBox="0 0 580 580" fill="none" xmlns="http://www.w3.org/2000/svg">
<g clip-path="url(#clip0)">
<path d="M66.2751 1.76799C24.9401 1.76799 1.7041 23.139 1.7041 66.804V516.927C1.7041 557.771 22.5981 579.156 63.8961 579.156H515.92C557.227 579.156 578.149 558.84 578.149 516.927V66.804C578.149 24.203 557.227 1.76799 514.627 1.76799C514.624 1.76799 66.1331 1.62499 66.2751 1.76799Z" fill="#111111" stroke="#EEEEEE" stroke-width="3.408"/>
<path d="M68.564 150.51L318.305 232.322L313.999 528.351L85.7875 423.934L68.564 150.51Z" stroke="white" stroke-width="30.4472" stroke-linecap="round" stroke-linejoin="round"/>
<path d="M514.223 131.134L318.305 232.322L315.076 529.428L494.846 405.634L514.223 131.134Z" stroke="white" stroke-width="30.4472" stroke-linecap="round" stroke-linejoin="round"/>
<path d="M273.094 62.2399L70.9863 148.088L318.305 231.246L512.07 129.25L273.094 62.2399Z" stroke="white" stroke-width="30.4472" stroke-linecap="round" stroke-linejoin="round"/>
<path opacity="0.9" d="M68.8378 135.307C64.6426 135.225 60.4509 136.942 57.5493 139.973C54.6476 143.004 53.0798 147.304 53.3449 151.492L70.5657 424.893C70.9067 430.364 74.4496 435.517 79.4352 437.794L307.683 542.213C312.266 544.303 317.884 543.931 322.139 541.234C326.394 538.538 329.156 533.601 329.223 528.563L333.543 232.527C333.635 226.09 329.178 219.845 323.06 217.841L73.3302 136.056C71.8815 135.584 70.3615 135.33 68.8378 135.307V135.307ZM137.721 238.229C142.452 238.122 148.335 238.972 155.403 240.763C164.825 243.151 175.104 246.797 186.158 251.764C203.903 259.737 218.148 267.294 229.008 274.398C239.868 281.504 249.057 290.243 256.539 300.662C261.793 307.908 266.085 316.716 269.382 327.155C272.679 337.594 274.501 347.017 274.854 355.319L278.137 433.129C278.489 441.431 279.261 448.227 280.383 453.345C281.504 458.463 283.765 465.322 287.179 474.021L231.6 449.083C229.177 443.543 227.6 439.442 226.82 436.758C226.04 434.073 225.181 430.002 224.286 424.605C216.89 429.643 209.444 432.227 201.939 432.438C191.673 432.603 179.636 429.626 165.77 423.396C147.345 415.118 133.115 403.965 123.15 389.933C113.184 375.901 107.918 361.707 107.311 347.428C106.742 334.035 109.72 324.575 116.238 319.034C122.756 313.494 135.16 312.788 153.502 316.903C175.491 321.788 189.73 324.685 196.237 325.6C202.744 326.515 209.627 326.992 216.856 326.982C216.503 318.681 214.762 312.187 211.615 307.515C208.468 302.844 203.109 298.819 195.546 295.42C185.849 291.064 178.646 289.565 173.948 290.928C170.284 291.996 167.427 295.798 165.424 302.389L108.578 270.136C110.232 259.805 112.892 252.342 116.641 247.675C120.39 243.008 125.982 239.994 133.344 238.632C134.665 238.384 136.144 238.265 137.721 238.229V238.229ZM178.728 357.162C174.999 357.255 172.363 357.838 170.838 358.89C167.696 361.061 166.263 364.493 166.461 369.142C166.686 374.455 168.483 379.511 171.875 384.347C175.266 389.182 180.085 393.034 186.388 395.865C192.982 398.828 199.071 399.734 204.588 398.63C210.106 397.526 213.897 394.872 216.05 390.682C218.202 386.492 219.114 380.203 218.757 371.791L218.296 361.021C210.291 360.682 201.958 359.733 193.242 358.314C187.308 357.439 182.458 357.069 178.728 357.162V357.162Z" fill="white"/>
<path opacity="0.6" d="M513.313 115.938C511.206 116.062 509.127 116.63 507.25 117.594L311.313 218.781C306.432 221.311 303.145 226.659 303.094 232.156L299.844 529.25C299.774 534.801 303.007 540.265 307.906 542.875C312.806 545.485 319.151 545.123 323.719 541.969L503.469 418.188C507.223 415.607 509.709 411.263 510.031 406.719L529.406 132.219C529.714 127.912 528.098 123.508 525.063 120.438C522.027 117.367 517.623 115.68 513.313 115.938ZM461.563 269.531C462.251 269.53 462.915 269.546 463.563 269.594C473.922 270.362 480.778 276.206 484.031 287.219L437.344 319.406C436.34 315.09 434.06 312.71 430.469 312.281C426.878 311.853 421.864 313.515 415.438 317.188C407.324 321.824 400.524 328.273 395.031 336.625C389.539 344.977 386.3 354.726 385.344 365.844C384.491 375.752 386.337 381.86 390.875 384.156C395.413 386.453 401.57 385.407 409.281 381C415.708 377.328 421.23 372.665 425.875 367.063C430.52 361.46 434.216 354.824 436.938 347.156L483.094 325.5C479.736 336.12 474.846 346.487 468.406 356.531C461.966 366.576 454.061 376.053 444.625 384.969C435.189 393.885 423.433 402.342 409.375 410.375C395.799 418.133 384.613 423.374 375.781 426.156C366.949 428.938 359.486 429.551 353.438 427.938C347.39 426.324 342.827 422.98 339.75 417.906C336.673 412.833 335.635 404.343 336.656 392.469C337.723 380.065 340.855 368.471 346.063 357.656C349.877 349.724 354.852 341.718 360.969 333.656C367.085 325.594 373.274 318.663 379.5 312.875C389.378 303.706 401.778 294.851 416.719 286.313C436.299 275.123 451.236 269.553 461.563 269.531Z" fill="white"/>
<path opacity="0.75" d="M272.687 47.0312C270.791 47.0779 268.905 47.483 267.156 48.2187L65.0312 134.062C59.3732 136.449 55.5142 142.551 55.75 148.688C55.9857 154.824 60.3005 160.586 66.125 162.531L313.469 245.688C317.359 246.991 321.777 246.632 325.406 244.719L519.156 142.719C524.504 139.901 527.822 133.668 527.187 127.656C526.553 121.645 522.006 116.233 516.187 114.594L277.219 47.5937C275.748 47.1803 274.215 46.99 272.687 47.0312ZM315.156 111.25C316.307 111.256 317.477 111.284 318.656 111.312C337.519 111.763 357.444 115.626 378.437 122.938C392.433 127.812 403.02 132.897 410.187 138.188C417.355 143.479 420.493 148.437 419.594 153.062C418.694 157.688 414.49 161.722 406.969 165.125C400.53 168.038 392.774 170.053 383.719 171.188C376.792 172.003 366.967 172.091 354.25 171.469L373.219 178.062L338.812 193.625L161.937 132.031L199.031 115.25L260.344 136.594C258.867 133.14 259.161 129.913 261.25 126.906C263.34 123.9 267.219 121.122 272.875 118.562C283.819 113.611 297.894 111.164 315.156 111.25ZM313.219 134.031C306.892 133.984 301.883 134.794 298.25 136.438C293.256 138.697 291.65 141.379 293.437 144.531C295.225 147.684 301.165 151.03 311.219 154.531C322.238 158.369 331.767 160.429 339.812 160.75C347.858 161.071 354.246 160.182 359 158.031C363.393 156.044 364.638 153.511 362.75 150.469C360.862 147.426 354.19 143.912 342.687 139.906C332.553 136.377 323.664 134.457 316 134.125C315.042 134.083 314.123 134.038 313.219 134.031Z" fill="white"/>
</g>
<defs>
<clipPath id="clip0">
<path d="M0 0H580V580H0V0Z" fill="white"/>
</clipPath>
</defs>
</svg>
